SF_Symbols/pyramid.fill.svg

<?xml version="1.0" encoding="UTF-8"?>
<svg xmlns="http://www.w3.org/2000/svg" xmlns:xlink="http://www.w3.org/1999/xlink" width="24" height="24" viewBox="0 0 24 24" version="1.1">
<g id="surface1">
<path style=" stroke:none;fill-rule:nonzero;fill:rgb(100%,100%,100%);fill-opacity:1;" d="M 1.292969 17.488281 C 1.105469 17.808594 1.046875 18.105469 1.125 18.375 C 1.203125 18.644531 1.390625 18.847656 1.6875 18.980469 L 10.511719 22.769531 C 10.65625 22.832031 10.792969 22.890625 10.917969 22.9375 C 11.046875 22.992188 11.179688 23.039062 11.3125 23.074219 L 11.3125 0.167969 C 11.195312 0.25 11.09375 0.363281 11.011719 0.511719 Z M 22.699219 17.511719 L 12.980469 0.53125 C 12.929688 0.460938 12.878906 0.394531 12.824219 0.332031 C 12.773438 0.269531 12.726562 0.222656 12.675781 0.1875 L 12.675781 23.09375 C 12.808594 23.050781 12.941406 23.003906 13.074219 22.949219 C 13.203125 22.898438 13.34375 22.84375 13.488281 22.78125 L 22.292969 19 C 22.597656 18.867188 22.785156 18.667969 22.855469 18.394531 C 22.929688 18.125 22.878906 17.828125 22.699219 17.511719 Z M 22.699219 17.511719 "/>
</g>
</svg>

<svg xmlns="http://www.w3.org/2000/svg" width="24" height="24"><path style="stroke:none;fill-rule:nonzero;fill:#fff;fill-opacity:1" d="M1.293 17.488c-.188.32-.246.617-.168.887.078.27.266.473.563.605l8.824 3.79c.144.062.281.12.406.168.129.054.262.101.395.136V.168a1.02 1.02 0 0 0-.301.344Zm21.406.024L12.98.532c-.05-.067-.101-.137-.156-.2a.742.742 0 0 0-.148-.145v22.907c.133-.043.265-.09.398-.145.13-.05.27-.105.414-.168L22.293 19c.305-.133.492-.332.562-.605.075-.27.024-.567-.156-.883Zm0 0"/></svg>
